icons/medical_records_fill.svg

<svg width="48" height="48" viewBox="0 0 48 48" fill="none" xmlns="http://www.w3.org/2000/svg">
<path fill-rule="evenodd" clip-rule="evenodd" d="M6 9C6 7.34315 7.34315 6 9 6H39C40.6569 6 42 7.34315 42 9V39C42 40.6569 40.6569 42 39 42H9C7.34315 42 6 40.6569 6 39V9ZM19 12H16C14.8954 12 14 12.8954 14 14V36C14 37.1046 14.8954 38 16 38H32C33.1046 38 34 37.1046 34 36V14C34 12.8954 33.1046 12 32 12H29C29 10.8954 28.1046 10 27 10H21C19.8954 10 19 10.8954 19 12ZM22.0638 34.649L24.5572 28H21.0002C20.448 28 20.0002 27.5523 20.0002 27C20.0002 26.4477 20.448 26 21.0002 26H25.9812C25.9939 25.9998 26.0066 25.9998 26.0193 26H26.9809C26.9936 25.9998 27.0064 25.9998 27.0191 26H31.3013C31.8536 26 32.3013 26.4477 32.3013 27C32.3013 27.5523 31.8536 28 31.3013 28H28.4431L30.9365 34.649C31.1304 35.1661 30.8684 35.7425 30.3512 35.9364C29.8341 36.1304 29.2577 35.8684 29.0638 35.3512L27.8054 31.9955H25.1948L23.9365 35.3512C23.7425 35.8684 23.1661 36.1304 22.649 35.9364C22.1319 35.7425 21.8699 35.1661 22.0638 34.649ZM17 19.24H31V17.24H17V19.24ZM22 23.4H17V21.4H22V23.4ZM26.5 25C27.6046 25 28.5 24.1046 28.5 23C28.5 21.8954 27.6046 21 26.5 21C25.3954 21 24.5 21.8954 24.5 23C24.5 24.1046 25.3954 25 26.5 25ZM21 12H27V14H21V12Z" fill="black"/>
</svg>

<svg
  xmlns="http://www.w3.org/2000/svg"
  width="24"
  height="24"
  viewBox="0 0 24 24"
  fill="none"
  stroke="currentColor"
  stroke-width="2"
  stroke-linecap="round"
  stroke-linejoin="round"
>
  <path
    fill-rule="evenodd"
    d="M6 9a3 3 0 0 1 3-3h30a3 3 0 0 1 3 3v30a3 3 0 0 1-3 3H9a3 3 0 0 1-3-3zm13 3h-3a2 2 0 0 0-2 2v22a2 2 0 0 0 2 2h16a2 2 0 0 0 2-2V14a2 2 0 0 0-2-2h-3a2 2 0 0 0-2-2h-6a2 2 0 0 0-2 2m3.064 22.649L24.557 28H21a1 1 0 0 1 0-2h10.301a1 1 0 1 1 0 2h-2.858l2.493 6.649a1 1 0 1 1-1.872.702l-1.259-3.355h-2.61l-1.259 3.355a1 1 0 1 1-1.872-.702M17 19.24h14v-2H17zm5 4.16h-5v-2h5zm4.5 1.6a2 2 0 1 0 0-4 2 2 0 0 0 0 4M21 12h6v2h-6z"
    clip-rule="evenodd"
  />
</svg>
